X: 11602
T: Egg, The
R: jig
M: 6/8
K: Adorian
B|:AGE EDE|~G2A c2d|~e3 ~e3|dcA dcA|
AGE EDE|~G2A c2d|~e3 edc|1 ~A3 A2B:|2 ~A3 A2d||
|:egg agg|egg dgg|egg agg|ege dcA|
AGE EDE|~G2A c2d|~e3 edc|1 ~A3 A2d:|2 ~A3 A2B||

